X:095
T:Lady Caroline Lees Waltz TS.095
T:Hanoverian Waltz TS.095
M:3/8
L:1/8
Q:3/8=50
S:Thomas Sands’ MS,1810,Lincolnshire
R:waltz
O:England;Lincolnshire
Z:vmp.Ruairidh Greig, 2011
K:D
A/G/|FGA|Bcd|EFG|{G}F2d/e/|fed|dfa|ABc|d2:|
|:a|gee|cAA|a/f/dd|dfa|gee|cAA|d/c/d/f/e/c/|d2:|
A|AFA|dcd|B^AB|G2E|F>GA|AGF|{F/}EDE|F2A|
AFA|dcd|B^AB|G2E|F>GA|AGF|{F/}EDE|D2|]

